Numix-Circle/48x48/apps/steam_icon_248820.svg

<svg xmlns="http://www.w3.org/2000/svg" viewBox="0 0 48 48"><defs><clipPath><g transform="translate(0,-1004.3622)"><path d="m -24 13 c 0 1.105 -0.672 2 -1.5 2 -0.828 0 -1.5 -0.895 -1.5 -2 0 -1.105 0.672 -2 1.5 -2 0.828 0 1.5 0.895 1.5 2 z" transform="matrix(15.333333,0,0,11.5,414.99999,878.8622)" fill="#1890d0"/></g></clipPath><clipPath><g transform="translate(0,-1004.3622)"><path d="m -24 13 c 0 1.105 -0.672 2 -1.5 2 -0.828 0 -1.5 -0.895 -1.5 -2 0 -1.105 0.672 -2 1.5 -2 0.828 0 1.5 0.895 1.5 2 z" transform="matrix(15.333333,0,0,11.5,414.99999,878.8622)" fill="#1890d0"/></g></clipPath><clipPath clipPathUnits="userSpaceOnUse"><rect width="57.959" height="48.539" x="-74.79" y="-7.298" opacity="0.1" fill="#808080" fill-rule="nonzero" stroke="none" fill-opacity="1"/></clipPath><linearGradient id="linearGradient4341" x1="1" x2="47" gradientUnits="userSpaceOnUse"><stop stop-color="#3a3456" stop-opacity="1"/><stop offset="1" stop-color="#423b63" stop-opacity="1"/></linearGradient></defs><g><path d="m 36.31 5 c 5.859 4.062 9.688 10.831 9.688 18.5 c 0 12.426 -10.07 22.5 -22.5 22.5 c -7.669 0 -14.438 -3.828 -18.5 -9.688 c 1.037 1.822 2.306 3.499 3.781 4.969 c 4.085 3.712 9.514 5.969 15.469 5.969 c 12.703 0 23 -10.298 23 -23 c 0 -5.954 -2.256 -11.384 -5.969 -15.469 c -1.469 -1.475 -3.147 -2.744 -4.969 -3.781 z m 4.969 3.781 c 3.854 4.113 6.219 9.637 6.219 15.719 c 0 12.703 -10.297 23 -23 23 c -6.081 0 -11.606 -2.364 -15.719 -6.219 c 4.16 4.144 9.883 6.719 16.219 6.719 c 12.703 0 23 -10.298 23 -23 c 0 -6.335 -2.575 -12.06 -6.719 -16.219 z" opacity="0.05"/><path d="m 41.28 8.781 c 3.712 4.085 5.969 9.514 5.969 15.469 c 0 12.703 -10.297 23 -23 23 c -5.954 0 -11.384 -2.256 -15.469 -5.969 c 4.113 3.854 9.637 6.219 15.719 6.219 c 12.703 0 23 -10.298 23 -23 c 0 -6.081 -2.364 -11.606 -6.219 -15.719 z" opacity="0.1"/><path d="m 31.25 2.375 c 8.615 3.154 14.75 11.417 14.75 21.13 c 0 12.426 -10.07 22.5 -22.5 22.5 c -9.708 0 -17.971 -6.135 -21.12 -14.75 a 23 23 0 0 0 44.875 -7 a 23 23 0 0 0 -16 -21.875 z" opacity="0.2"/></g><g transform="matrix(0,-1,1,0,0,48)" fill="url(#linearGradient4341)" fill-opacity="1"><path d="M 24,1 C 36.703,1 47,11.297 47,24 47,36.703 36.703,47 24,47 11.297,47 1,36.703 1,24 1,11.297 11.297,1 24,1 Z"/></g><path d="m 15 14 0 1 -2 0 0 1 -1 0 c 0 6.667 0 13.333 0 20 l 26 0 c 0 -6.667 0 -13.333 0 -20 l -1 0 0 -1 -2 0 0 -1 -4 0 0 1 -4 0 0 -1 -4 0 0 1 -4 0 0 -1 z" opacity="0.1" fill="#000" fill-rule="nonzero" stroke="none" fill-opacity="1"/><g><path d="m 40.03 7.531 c 3.712 4.084 5.969 9.514 5.969 15.469 0 12.703 -10.297 23 -23 23 c -5.954 0 -11.384 -2.256 -15.469 -5.969 4.178 4.291 10.01 6.969 16.469 6.969 c 12.703 0 23 -10.298 23 -23 0 -6.462 -2.677 -12.291 -6.969 -16.469 z" opacity="0.1"/></g><path d="m 14 13 l 0 1 l -2 0 l 0 1 l -1 0 l 0 1 l 26 0 l 0 -1 l -1 0 l 0 -1 l -2 0 l 0 -1 l -4 0 l 0 1 l -4 0 l 0 -1 l -4 0 l 0 1 l -4 0 l 0 -1 l -4 0 z" opacity="1" fill="#525c70" fill-rule="nonzero" stroke="none" fill-opacity="1"/><path d="m 14 14 l 0 2 l -3 0 l 0 19 l 26 0 l 0 -19 l -3 0 l 0 -2 l -4 0 l 0 2 l -4 0 l 0 -2 l -4 0 l 0 2 l -4 0 l 0 -2 l -4 0 z" opacity="1" fill="#819193" fill-rule="nonzero" stroke="none" fill-opacity="1"/><rect width="26" height="2" x="11" y="21" opacity="1" fill="#4a5064" fill-rule="nonzero" stroke="none" fill-opacity="1"/><rect width="4" height="11" x="14" y="16" opacity="1" fill="#a9bfbc" fill-rule="nonzero" stroke="none" fill-opacity="1"/><rect width="4" height="11" x="22" y="16" opacity="1" fill="#a9bfbc" fill-rule="nonzero" stroke="none" fill-opacity="1"/><rect width="4" height="11" x="30" y="16" opacity="1" fill="#a9bfbc" fill-rule="nonzero" stroke="none" fill-opacity="1"/><rect width="4" height="1" x="14" y="27" opacity="1" fill="#525c70" fill-rule="nonzero" stroke="none" fill-opacity="1"/><rect width="4" height="1" x="22" y="27" opacity="1" fill="#525c70" fill-rule="nonzero" stroke="none" fill-opacity="1"/><rect width="4" height="1" x="30" y="27" opacity="1" fill="#525c70" fill-rule="nonzero" stroke="none" fill-opacity="1"/><rect width="26" height="1" x="11" y="34" opacity="1" fill="#4a5064" fill-rule="nonzero" stroke="none" fill-opacity="1"/><rect width="26" height="2" x="11" y="31" opacity="1" fill="#a9bfbc" fill-rule="nonzero" stroke="none" fill-opacity="1"/><rect width="2" height="2" x="15" y="24" opacity="1" fill="#eaeeed" fill-rule="nonzero" stroke="none" fill-opacity="1"/><rect width="2" height="2" x="23" y="24" opacity="1" fill="#eaeeed" fill-rule="nonzero" stroke="none" fill-opacity="1"/><rect width="2" height="2" x="31" y="24" opacity="1" fill="#eaeeed" fill-rule="nonzero" stroke="none" fill-opacity="1"/></svg>

<?xml version="1.0" encoding="UTF-8" standalone="no"?>
<svg
   xmlns:dc="http://purl.org/dc/elements/1.1/"
   xmlns:cc="http://creativecommons.org/ns#"
   xmlns:rdf="http://www.w3.org/1999/02/22-rdf-syntax-ns#"
   xmlns:svg="http://www.w3.org/2000/svg"
   xmlns="http://www.w3.org/2000/svg"
   xmlns:xlink="http://www.w3.org/1999/xlink"
   xmlns:sodipodi="http://sodipodi.sourceforge.net/DTD/sodipodi-0.dtd"
   xmlns:inkscape="http://www.inkscape.org/namespaces/inkscape"
   viewBox="0 0 48 48"
   id="svg2"
   version="1.1"
   inkscape:version="0.91 r13725"
   sodipodi:docname="steam_icon_248820.svg">
  <metadata
     id="metadata65">
    <rdf:RDF>
      <cc:Work
         rdf:about="">
        <dc:format>image/svg+xml</dc:format>
        <dc:type
           rdf:resource="http://purl.org/dc/dcmitype/StillImage" />
      </cc:Work>
    </rdf:RDF>
  </metadata>
  <sodipodi:namedview
     pagecolor="#ffffff"
     bordercolor="#666666"
     borderopacity="1"
     objecttolerance="10"
     gridtolerance="10"
     guidetolerance="10"
     inkscape:pageopacity="0"
     inkscape:pageshadow="2"
     inkscape:window-width="1280"
     inkscape:window-height="998"
     id="namedview63"
     showgrid="true"
     inkscape:snap-object-midpoints="true"
     inkscape:object-nodes="true"
     inkscape:zoom="6.9532168"
     inkscape:cx="28.864367"
     inkscape:cy="32.286243"
     inkscape:window-x="0"
     inkscape:window-y="0"
     inkscape:window-maximized="1"
     inkscape:current-layer="svg2">
    <inkscape:grid
       type="xygrid"
       id="grid3403" />
  </sodipodi:namedview>
  <defs
     id="defs4">
    <linearGradient
       inkscape:collect="always"
       id="linearGradient4335">
      <stop
         style="stop-color:#3a3456;stop-opacity:1"
         offset="0"
         id="stop4337" />
      <stop
         style="stop-color:#423b63;stop-opacity:1"
         offset="1"
         id="stop4339" />
    </linearGradient>
    <inkscape:perspective
       sodipodi:type="inkscape:persp3d"
       inkscape:vp_x="0 : 24 : 1"
       inkscape:vp_y="0 : 1000 : 0"
       inkscape:vp_z="48 : 24 : 1"
       inkscape:persp3d-origin="24 : 16 : 1"
       id="perspective4230" />
    <linearGradient
       id="linearGradient3764"
       x1="1"
       x2="47"
       gradientUnits="userSpaceOnUse"
       gradientTransform="matrix(0,-1,1,0,-1.5e-6,47.999998)">
      <stop
         stop-color="#6b6b6b"
         stop-opacity="1"
         id="stop7" />
      <stop
         offset="1"
         stop-color="#757575"
         stop-opacity="1"
         id="stop9" />
    </linearGradient>
    <clipPath
       id="clipPath-932799937">
      <g
         transform="translate(0,-1004.3622)"
         id="g12">
        <path
           d="m -24 13 c 0 1.105 -0.672 2 -1.5 2 -0.828 0 -1.5 -0.895 -1.5 -2 0 -1.105 0.672 -2 1.5 -2 0.828 0 1.5 0.895 1.5 2 z"
           transform="matrix(15.333333,0,0,11.5,414.99999,878.8622)"
           fill="#1890d0"
           id="path14" />
      </g>
    </clipPath>
    <clipPath
       id="clipPath-940011818">
      <g
         transform="translate(0,-1004.3622)"
         id="g17">
        <path
           d="m -24 13 c 0 1.105 -0.672 2 -1.5 2 -0.828 0 -1.5 -0.895 -1.5 -2 0 -1.105 0.672 -2 1.5 -2 0.828 0 1.5 0.895 1.5 2 z"
           transform="matrix(15.333333,0,0,11.5,414.99999,878.8622)"
           fill="#1890d0"
           id="path19" />
      </g>
    </clipPath>
    <clipPath
       clipPathUnits="userSpaceOnUse"
       id="clipPath3410">
      <rect
         style="opacity:0.1;fill:#808080;fill-opacity:1;fill-rule:nonzero;stroke:none;stroke-width:1;stroke-linejoin:round;stroke-miterlimit:4;stroke-dasharray:none;stroke-opacity:1"
         id="rect3412"
         width="57.958786"
         height="48.538689"
         x="-74.78553"
         y="-7.2981472" />
    </clipPath>
    <linearGradient
       inkscape:collect="always"
       xlink:href="#linearGradient4335"
       id="linearGradient4341"
       x1="1"
       y1="24"
       x2="47"
       y2="24"
       gradientUnits="userSpaceOnUse" />
    <linearGradient
       inkscape:collect="always"
       xlink:href="#linearGradient4335"
       id="linearGradient4343"
       gradientUnits="userSpaceOnUse"
       x1="1"
       y1="24"
       x2="47"
       y2="24" />
  </defs>
  <g
     id="g21">
    <path
       d="m 36.31 5 c 5.859 4.062 9.688 10.831 9.688 18.5 c 0 12.426 -10.07 22.5 -22.5 22.5 c -7.669 0 -14.438 -3.828 -18.5 -9.688 c 1.037 1.822 2.306 3.499 3.781 4.969 c 4.085 3.712 9.514 5.969 15.469 5.969 c 12.703 0 23 -10.298 23 -23 c 0 -5.954 -2.256 -11.384 -5.969 -15.469 c -1.469 -1.475 -3.147 -2.744 -4.969 -3.781 z m 4.969 3.781 c 3.854 4.113 6.219 9.637 6.219 15.719 c 0 12.703 -10.297 23 -23 23 c -6.081 0 -11.606 -2.364 -15.719 -6.219 c 4.16 4.144 9.883 6.719 16.219 6.719 c 12.703 0 23 -10.298 23 -23 c 0 -6.335 -2.575 -12.06 -6.719 -16.219 z"
       opacity="0.05"
       id="path23" />
    <path
       d="m 41.28 8.781 c 3.712 4.085 5.969 9.514 5.969 15.469 c 0 12.703 -10.297 23 -23 23 c -5.954 0 -11.384 -2.256 -15.469 -5.969 c 4.113 3.854 9.637 6.219 15.719 6.219 c 12.703 0 23 -10.298 23 -23 c 0 -6.081 -2.364 -11.606 -6.219 -15.719 z"
       opacity="0.1"
       id="path25" />
    <path
       d="m 31.25 2.375 c 8.615 3.154 14.75 11.417 14.75 21.13 c 0 12.426 -10.07 22.5 -22.5 22.5 c -9.708 0 -17.971 -6.135 -21.12 -14.75 a 23 23 0 0 0 44.875 -7 a 23 23 0 0 0 -16 -21.875 z"
       opacity="0.2"
       id="path27" />
  </g>
  <g
     id="g29"
     style="fill:url(#linearGradient4341);fill-opacity:1"
     transform="matrix(0,-1,1,0,0,48)">
    <path
       d="M 24,1 C 36.703,1 47,11.297 47,24 47,36.703 36.703,47 24,47 11.297,47 1,36.703 1,24 1,11.297 11.297,1 24,1 Z"
       id="path31"
       style="fill:url(#linearGradient4343);fill-opacity:1"
       inkscape:connector-curvature="0" />
  </g>
  <path
     style="opacity:0.1;fill:#000000;fill-opacity:1;fill-rule:nonzero;stroke:none;stroke-width:1;stroke-linejoin:round;stroke-miterlimit:4;stroke-dasharray:none;stroke-opacity:1"
     d="m 15,14 0,1 -2,0 0,1 -1,0 0,1 0,5 0,2 0,8 0,2 0,2 26,0 0,-1 0,-1 0,-2 0,-8 0,-2 0,-5 0,-1 -1,0 0,-1 -2,0 0,-1 -4,0 0,1 -4,0 0,-1 -4,0 0,1 -4,0 0,-1 -4,0 z"
     id="path4173"
     inkscape:connector-curvature="0" />
  <g
     id="g33" />
  <g
     id="g59">
    <path
       d="m 40.03 7.531 c 3.712 4.084 5.969 9.514 5.969 15.469 0 12.703 -10.297 23 -23 23 c -5.954 0 -11.384 -2.256 -15.469 -5.969 4.178 4.291 10.01 6.969 16.469 6.969 c 12.703 0 23 -10.298 23 -23 0 -6.462 -2.677 -12.291 -6.969 -16.469 z"
       opacity="0.1"
       id="path61" />
  </g>
  <path
     style="opacity:1;fill:#525c70;fill-opacity:1;fill-rule:nonzero;stroke:none;stroke-width:1;stroke-linejoin:round;stroke-miterlimit:4;stroke-dasharray:none;stroke-opacity:1"
     d="M 14 13 L 14 14 L 12 14 L 12 15 L 11 15 L 11 16 L 37 16 L 37 15 L 36 15 L 36 14 L 34 14 L 34 13 L 30 13 L 30 14 L 26 14 L 26 13 L 22 13 L 22 14 L 18 14 L 18 13 L 14 13 z "
     id="rect4207" />
  <path
     style="opacity:1;fill:#819193;fill-opacity:1;fill-rule:nonzero;stroke:none;stroke-width:1;stroke-linejoin:round;stroke-miterlimit:4;stroke-dasharray:none;stroke-opacity:1"
     d="M 14 14 L 14 16 L 11 16 L 11 35 L 37 35 L 37 16 L 34 16 L 34 14 L 30 14 L 30 16 L 26 16 L 26 14 L 22 14 L 22 16 L 18 16 L 18 14 L 14 14 z "
     id="rect4205" />
  <rect
     style="opacity:1;fill:#4a5064;fill-opacity:1;fill-rule:nonzero;stroke:none;stroke-width:1;stroke-linejoin:round;stroke-miterlimit:4;stroke-dasharray:none;stroke-opacity:1"
     id="rect4228"
     width="26"
     height="2"
     x="11"
     y="21" />
  <rect
     style="opacity:1;fill:#a9bfbc;fill-opacity:1;fill-rule:nonzero;stroke:none;stroke-width:1;stroke-linejoin:round;stroke-miterlimit:4;stroke-dasharray:none;stroke-opacity:1"
     id="rect4222"
     width="4"
     height="11"
     x="14"
     y="16" />
  <rect
     style="opacity:1;fill:#a9bfbc;fill-opacity:1;fill-rule:nonzero;stroke:none;stroke-width:1;stroke-linejoin:round;stroke-miterlimit:4;stroke-dasharray:none;stroke-opacity:1"
     id="rect4224"
     width="4"
     height="11"
     x="22"
     y="16" />
  <rect
     style="opacity:1;fill:#a9bfbc;fill-opacity:1;fill-rule:nonzero;stroke:none;stroke-width:1;stroke-linejoin:round;stroke-miterlimit:4;stroke-dasharray:none;stroke-opacity:1"
     id="rect4226"
     width="4"
     height="11"
     x="30"
     y="16" />
  <rect
     style="opacity:1;fill:#525c70;fill-opacity:1;fill-rule:nonzero;stroke:none;stroke-width:1;stroke-linejoin:round;stroke-miterlimit:4;stroke-dasharray:none;stroke-opacity:1"
     id="rect4246"
     width="4"
     height="1"
     x="14"
     y="27" />
  <rect
     style="opacity:1;fill:#525c70;fill-opacity:1;fill-rule:nonzero;stroke:none;stroke-width:1;stroke-linejoin:round;stroke-miterlimit:4;stroke-dasharray:none;stroke-opacity:1"
     id="rect4248"
     width="4"
     height="1"
     x="22"
     y="27" />
  <rect
     style="opacity:1;fill:#525c70;fill-opacity:1;fill-rule:nonzero;stroke:none;stroke-width:1;stroke-linejoin:round;stroke-miterlimit:4;stroke-dasharray:none;stroke-opacity:1"
     id="rect4250"
     width="4"
     height="1"
     x="30"
     y="27" />
  <rect
     style="opacity:1;fill:#4a5064;fill-opacity:1;fill-rule:nonzero;stroke:none;stroke-width:1;stroke-linejoin:round;stroke-miterlimit:4;stroke-dasharray:none;stroke-opacity:1"
     id="rect4252"
     width="26"
     height="1"
     x="11"
     y="34" />
  <rect
     style="opacity:1;fill:#a9bfbc;fill-opacity:1;fill-rule:nonzero;stroke:none;stroke-width:1;stroke-linejoin:round;stroke-miterlimit:4;stroke-dasharray:none;stroke-opacity:1"
     id="rect4254"
     width="26"
     height="2"
     x="11"
     y="31" />
  <rect
     style="opacity:1;fill:#eaeeed;fill-opacity:1;fill-rule:nonzero;stroke:none;stroke-width:1;stroke-linejoin:round;stroke-miterlimit:4;stroke-dasharray:none;stroke-opacity:1"
     id="rect4296"
     width="2"
     height="2"
     x="15"
     y="24" />
  <rect
     style="opacity:1;fill:#eaeeed;fill-opacity:1;fill-rule:nonzero;stroke:none;stroke-width:1;stroke-linejoin:round;stroke-miterlimit:4;stroke-dasharray:none;stroke-opacity:1"
     id="rect4298"
     width="2"
     height="2"
     x="23"
     y="24" />
  <rect
     style="opacity:1;fill:#eaeeed;fill-opacity:1;fill-rule:nonzero;stroke:none;stroke-width:1;stroke-linejoin:round;stroke-miterlimit:4;stroke-dasharray:none;stroke-opacity:1"
     id="rect4300"
     width="2"
     height="2"
     x="31"
     y="24" />
</svg>
